X:1
T:Woodlands, 10.10.10.10
T:Walter Greatorex, 1916
T:Woodlands, 10.10.10.10
T:Public Domain
C:Walter Greatorex, 1916
Z:Public Domain
%%score ( 1 2 ) ( 3 4 )
L:1/8
M:4/4
K:D
V:1 treble 
V:2 treble 
V:3 bass 
V:4 bass 
V:1
 z2 A2 A2 A2 | [Dd]6 [DA]2 | [DB]2 (FG) [DA]2 [CE]2 | [DF]6 [EA]2 | D4 D4 | D2 (B,C) [DF]2 [FB]2 | %6
 [EG]4 [B,E]4 | [CF]2 F2 F2 F2 | (B,2 ^D2 E2) [FB]2 | [GB]2 [Gd]2 [Ac]2 [FB]2 | [EA]6 [A,E]2 | %11
 [DF]4 [DG]4 | [DA]2 [DB]2 [Gc]2 [Fd]2 | (D4 C2) [A,D]2 | [A,D]8 |] %15
V:2
 x2 A2 A2 A2 | x8 | x2 D2 x4 | x8 | D4 D4 | D2 E2 x4 | x8 | x2 F2 F2 F2 | B6 x2 | x8 | x8 | x8 | %12
 x8 | E6 x2 | x8 |] %15
V:3
 z2 A,2 A,2 A,2 | D6 [F,D]2 | [G,B,]2 [B,D]2 [A,E]2 [A,,A,]2 | (D,2 E,2 D,2) [C,A,]2 | %4
 (A,2 G,2) ([A,,F,]2 [G,B,]2) | [F,A,]2 [E,G,]2 [D,A,]2 [D,B,]2 | (B,2 D2) (C2 B,2) | %7
 [F,^A,]2 F,2 F,2 F,2 | (B,2 B,,2 C,2) ^D,2 | [E,B,]2 [E,G,]2 [E,A,]2 [D,B,]2 | %10
 [C,E]2 [A,,C]2 [B,,D]2 [C,E]2 | [D,A,]4 [B,D]4 | [F,D]2 (G,F,) [E,G,]2 [D,A,]2 | [G,B,]4 [A,C]4 | %14
 [D,F,D]8 |] %15
V:4
 x2 A,2 A,2 A,2 | D6 x2 | x8 | A,6 x2 | B,,4 x4 | x8 | E,4 G,4 | x2 F,2 F,2 F,2 | B,4 B,4 | x8 | %10
 x8 | x8 | x2 B,2 x4 | x8 | x8 |] %15

